X:153
T:Mike Crowley's Hornpipe
B:Terry "Cuz" Teahan "Sliabh Luachra on Parade" 1980
Z:Patrick Cavanagh
M:4/4
L:1/8
R:Hornpipe
K:D
dB | AFEF D2E2 | FDFA d2e2 | f2e2 dBAF | E2E2 E2dB | 
AFEF D2E2 | FDFA d2e2 | f/g/f e/f/e dBAF | D2E2 D2 :| 
z2 | BABc def2 | efgf e2de | f/g/f e/f/e dBAF | E2E2 E2dB | 
AFEF D2E2 | FDFA d2e2 | f/g/f e/f/e dBAF | D2E2 D2 :|| 

